X:1
T:Castle Grant
M:C|
L:1/8
Q:80
C:
S:March
K:HP
|: {g}e/4a3/4 | \
{cd}c{g}B/4{d}A3/4{gef}e3/4A/4{g}c/4e3/4 | \
a{GdG}a3/4g/4{fg}f3/4e/4{g}f/4a3/4 |
c{GdGe}c3/4f/4{g}e3/4A/4{d}c/4a3/4 | \
B{GdG}B3/4c/4{gBd}B{g}e/4a3/4{cd}c{g}B/4{d}A3/4{gef}e3/4A/4{g}c/4e3/4 | \
a{GdG}a3/4g/4{fg}f3/4e/4{g}f/4a3/4 |
A3/4B/4{GdG}c/4a3/4c/4e3/4B3/4{d}c/4 | \
{g}A3/2{GdGe}A/2{GAG}A :: \
{g}c/4e3/4 |
a{GdG}a3/4e/4{g}f3/4e/4{g}c/4e3/4 | \
{g}d/4f3/4{g}f/4a3/4e3/4A/4{g}c/4{d}A3/4 | \
{g}A3/4a/4g/4a3/4e3/4A/4{g}c/4a3/4 |
B{GdGe}B3/4c/4{gBd}B|1 {g}c/4e3/4|1 a{GdG}a3/4e/4{g}f3/4e/4{g}c/4e3/4 | \
{g}d/4f3/4{g}f/4a3/4e3/4A/4{g}c/4{d}A3/4 | \
A3/4B/4{GdG}c/4a3/4c/4e3/4B3/4{d}c/4 |
{g}A3/2{GdGe}A/2{GAG}A:|2
{g}e/4a3/4 | \
{cd}c{g}B/4{d}A3/4{gef}e3/4A/4{g}c/4e3/4 |
a{GdG}a3/4g/4{fg}f3/4e/4{g}f/4a3/4 | \
A3/4B/4{GdG}c/4a3/4c/4e3/4{g}B3/4{d}c/4 | \
{g}A3/2{GdGe}A/2{GAG}A|]
